icons/thumbsdown-16.svg

<svg width="16" height="16" viewBox="0 0 16 16" fill="none" xmlns="http://www.w3.org/2000/svg">
<g clip-path="url(#clip0_8_8)">
<path d="M7.65292 15.369C7.49781 15.6434 7.18764 15.7916 6.8767 15.7398L6.63878 15.7001C4.7249 15.3811 3.51509 13.4671 4.04813 11.6015L4.5057 9.99997H3.84118C1.67146 9.99997 0.111022 7.91448 0.723246 5.83292L1.85822 1.97401C2.20244 0.803657 3.27655 -3.52859e-05 4.49648 -3.52859e-05H9.41385C10.1997 -3.52859e-05 10.9633 0.246786 11.5984 0.701957C11.9176 0.275767 12.4266 -3.52859e-05 13 -3.52859e-05H14.25C15.2165 -3.52859e-05 16 0.783466 16 1.74996V8.24997C16 9.21646 15.2165 9.99997 14.25 9.99997H10.8335C10.7433 9.99997 10.6602 10.0485 10.6158 10.127L7.65292 15.369ZM11.25 2.35125L10.8543 2.02147C10.4499 1.6845 9.94021 1.49996 9.41385 1.49996H4.49648C3.94197 1.49996 3.45373 1.86528 3.29727 2.39726L2.16229 6.25617C1.83263 7.37701 2.67287 8.49997 3.84118 8.49997H5.5C5.73534 8.49997 5.95704 8.61043 6.09876 8.79832C6.24048 8.9862 6.2858 9.22972 6.22114 9.45601L5.49041 12.0136C5.22923 12.9277 5.74515 13.8634 6.6167 14.1539L9.30998 9.38886C9.62044 8.83959 10.2025 8.49997 10.8335 8.49997H11.25V2.35125ZM12.75 8.49997H14.25C14.3881 8.49997 14.5 8.38804 14.5 8.24997V1.74996C14.5 1.61189 14.3881 1.49996 14.25 1.49996H13C12.8619 1.49996 12.75 1.61189 12.75 1.74996V8.49997Z" fill="black"/>
</g>
<defs>
<clipPath id="clip0_8_8">
<rect width="16" height="16" fill="white"/>
</clipPath>
</defs>
</svg>

<svg xmlns="http://www.w3.org/2000/svg" width="16" height="16" viewBox="0 0 16 16"><path d="M7.653 15.369a.75.75 0 0 1-.776.371l-.238-.04a3.25 3.25 0 0 1-2.591-4.099L4.506 10h-.665A3.25 3.25 0 0 1 .723 5.833l1.135-3.859A2.75 2.75 0 0 1 4.482 0H9.43c.78.003 1.538.25 2.168.702A1.752 1.752 0 0 1 12.989 0h1.272A1.75 1.75 0 0 1 16 1.75v6.5A1.75 1.75 0 0 1 14.25 10h-3.417a.25.25 0 0 0-.217.127ZM11.25 2.351l-.396-.33a2.248 2.248 0 0 0-1.44-.521H4.496a1.25 1.25 0 0 0-1.199.897L2.162 6.256A1.75 1.75 0 0 0 3.841 8.5H5.5a.75.75 0 0 1 .721.956l-.731 2.558a1.75 1.75 0 0 0 1.127 2.14L9.31 9.389a1.75 1.75 0 0 1 1.523-.889h.417Zm1.5 6.149h1.5a.25.25 0 0 0 .25-.25v-6.5a.25.25 0 0 0-.25-.25H13a.25.25 0 0 0-.25.25Z"/></svg>
